app/src/main/assets/beauty/makeup/custom/lip/lips.CUBE
#Created by: Adobe Photoshop Export Color Lookup Plugin
TITLE "未标题-1"
#LUT size
LUT_3D_SIZE 17
#data domain
DOMAIN_MIN 0.0 0.0 0.0
DOMAIN_MAX 1.0 1.0 1.0
#LUT data points
0.000000 0.000000 0.000000
0.062500 0.000000 0.000000
0.125000 0.000000 0.000000
0.187500 0.000000 0.000000
0.250000 0.000000 0.000000
0.312500 0.000000 0.000000
0.375000 0.000000 0.000000
0.437500 0.000000 0.000000
0.500000 0.000000 0.000000
0.562500 0.000000 0.000000
0.625000 0.000000 0.000000
0.687500 0.000000 0.000000
0.750000 0.000000 0.000000
0.812500 0.000000 0.000000
0.875000 0.000000 0.000000
0.937500 0.000000 0.000000
1.000000 0.000000 0.000000
0.000000 0.062500 0.000000
0.062500 0.062500 0.000000
0.125000 0.062500 0.000000
0.187500 0.062500 0.000000
0.250000 0.062500 0.000000
0.312500 0.062500 0.000000
0.375000 0.062500 0.000000
0.437500 0.062469 0.000000
0.500000 0.062469 0.000000
0.562500 0.062500 0.000000
0.625000 0.062500 0.000000
0.687500 0.062500 0.000000
0.750000 0.062500 0.000000
0.812500 0.062500 0.000000
0.875000 0.062500 0.000000
0.937500 0.062500 0.000000
1.000000 0.062500 0.000000
0.000000 0.125000 0.000000
0.062500 0.125000 0.000000
0.125000 0.125000 0.000000
0.187500 0.125000 0.000000
0.250000 0.125000 0.000000
0.312469 0.125000 0.000000
0.374695 0.124756 0.000000
0.440521 0.122742 0.000000
0.502289 0.123596 0.000000
0.562714 0.124847 0.000000
0.625000 0.125000 0.000000
0.687500 0.125000 0.000000
0.750000 0.125000 0.000000
0.812500 0.125000 0.000000
0.875000 0.125000 0.000000
0.937500 0.125000 0.000000
1.000000 0.125000 0.000000
0.000000 0.187500 0.000000
0.062500 0.187500 0.000000
0.125000 0.187500 0.000000
0.187500 0.187500 0.000000
0.250000 0.187500 0.000000
0.312500 0.187500 0.000000
0.375000 0.187500 0.000000
0.437500 0.187500 0.000000
0.500000 0.187500 0.000000
0.562500 0.187500 0.000000
0.625000 0.187500 0.000000
0.687500 0.187500 0.000000
0.750000 0.187500 0.000000
0.812500 0.187500 0.000000
0.875000 0.187500 0.000000
0.937500 0.187500 0.000000
1.000000 0.187500 0.000000
0.000000 0.250000 0.000000
0.062500 0.250000 0.000000
0.125000 0.250000 0.000000
0.187500 0.250000 0.000000
0.250000 0.250000 0.000000
0.312500 0.250000 0.000000
0.375000 0.250000 0.000000
0.437500 0.250000 0.000000
0.500000 0.250000 0.000000
0.562500 0.250000 0.000000
0.625000 0.250000 0.000000
0.687500 0.250000 0.000000
0.750000 0.250000 0.000000
0.812500 0.250000 0.000000
0.875000 0.250000 0.000000
0.937500 0.250000 0.000000
1.000000 0.250000 0.000000
0.000000 0.312500 0.000000
0.062500 0.312500 0.000000
0.125000 0.312500 0.000000
0.187500 0.312500 0.000000
0.250000 0.312500 0.000000
0.312500 0.312500 0.000000
0.375000 0.312500 0.000000
0.437775 0.312256 0.000000
0.501526 0.311462 0.000000
0.563263 0.311981 0.000000
0.625061 0.312439 0.000000
0.687500 0.312500 0.000000
0.750000 0.312500 0.000000
0.812500 0.312500 0.000000
0.875000 0.312500 0.000000
0.937500 0.312500 0.000000
1.000000 0.312500 0.000000
0.000000 0.375000 0.000000
0.062500 0.375000 0.000000
0.125000 0.375000 0.000000
0.187500 0.375000 0.000000
0.250000 0.375000 0.000000
0.312500 0.375000 0.000000
0.375000 0.375000 0.000000
0.437500 0.375000 0.000000
0.500000 0.375000 0.000000
0.562500 0.375000 0.000000
0.625000 0.375000 0.000000
0.687500 0.375000 0.000000
0.750000 0.375000 0.000000
0.812500 0.375000 0.000000
0.875000 0.375000 0.000000
0.937500 0.375000 0.000000
1.000000 0.375000 0.000000
0.000000 0.437500 0.000000
0.062500 0.437500 0.000000
0.125000 0.437500 0.000000
0.187500 0.437500 0.000000
0.250000 0.437500 0.000000
0.312500 0.437500 0.000000
0.375000 0.437500 0.000000
0.437500 0.437500 0.000000
0.500000 0.437500 0.000000
0.562500 0.437500 0.000000
0.625000 0.437500 0.000000
0.687500 0.437500 0.000000
0.750000 0.437500 0.000000
0.812500 0.437500 0.000000
0.875000 0.437500 0.000000
0.937500 0.437500 0.000000
1.000000 0.437500 0.000000
0.000000 0.500000 0.000000
0.062500 0.500000 0.000000
0.125000 0.500000 0.000000
0.187500 0.500000 0.000000
0.250000 0.500000 0.000000
0.312500 0.500000 0.000000
0.375000 0.500000 0.000000
0.437500 0.500000 0.000000
0.500061 0.500061 0.000000
0.562714 0.500214 0.000031
0.625092 0.500122 0.000031
0.687500 0.500000 0.000000
0.750000 0.500000 0.000000
0.812500 0.500000 0.000000
0.875000 0.500000 0.000000
0.937500 0.500000 0.000000
1.000000 0.500000 0.000000
0.000000 0.562500 0.000000
0.062500 0.562500 0.000000
0.125000 0.562500 0.000000
0.187500 0.562500 0.000000
0.250000 0.562531 0.000031
0.312500 0.562561 0.000031
0.375000 0.562500 0.000000
0.437500 0.562500 0.000000
0.500000 0.562500 0.000000
0.562500 0.562500 0.000000
0.625000 0.562500 0.000000
0.687500 0.562500 0.000000
0.750000 0.562500 0.000000
0.812500 0.562500 0.000000
0.875000 0.562500 0.000000
0.937500 0.562500 0.000000
1.000000 0.562500 0.000000
0.000000 0.625000 0.000000
0.062500 0.625000 0.000000
0.125000 0.625000 0.000000
0.187500 0.625000 0.000000
0.250000 0.625061 0.000031
0.312500 0.625061 0.000031
0.375000 0.625000 0.000000
0.437500 0.625000 0.000000
0.500000 0.625000 0.000000
0.562500 0.625000 0.000000
0.625000 0.625000 0.000000
0.687500 0.625000 0.000000
0.750000 0.625000 0.000000
0.812500 0.625000 0.000000
0.875000 0.625000 0.000000
0.937500 0.625000 0.000000
1.000000 0.625000 0.000000
0.000000 0.687500 0.000000
0.062500 0.687500 0.000000
0.125000 0.687500 0.000000
0.187500 0.687500 0.000000
0.250000 0.687500 0.000000
0.312500 0.687500 0.000000
0.375000 0.687500 0.000000
0.437500 0.687500 0.000000
0.500000 0.687500 0.000000
0.562500 0.687500 0.000000
0.625000 0.687500 0.000000
0.687500 0.687500 0.000000
0.750000 0.687500 0.000000
0.812500 0.687500 0.000000
0.875000 0.687500 0.000000
0.937500 0.687500 0.000000
1.000000 0.687500 0.000000
0.000000 0.750000 0.000000
0.062500 0.750000 0.000000
0.125000 0.750000 0.000000
0.187500 0.750000 0.000000
0.250000 0.750031 0.000031
0.312531 0.750153 0.000092
0.375061 0.750214 0.000092
0.437531 0.750031 0.000031
0.500000 0.750000 0.000000
0.562500 0.750000 0.000000
0.625000 0.750000 0.000000
0.687500 0.750000 0.000000
0.750000 0.750000 0.000000
0.812500 0.750000 0.000000
0.875000 0.750000 0.000000
0.937500 0.750000 0.000000
1.000000 0.750000 0.000000
0.000000 0.812500 0.000000
0.062500 0.812500 0.000000
0.125000 0.812500 0.000000
0.187500 0.812500 0.000000
0.250000 0.812531 0.000031
0.312531 0.812653 0.000092
0.375061 0.812714 0.000122
0.437561 0.812531 0.000031
0.500000 0.812500 0.000000
0.562500 0.812500 0.000000
0.625000 0.812500 0.000000
0.687500 0.812500 0.000000
0.750000 0.812500 0.000000
0.812500 0.812500 0.000000
0.875000 0.812500 0.000000
0.937500 0.812500 0.000000
1.000000 0.812500 0.000000
0.000000 0.875000 0.000000
0.062500 0.875000 0.000000
0.125000 0.875000 0.000000
0.187500 0.875000 0.000000
0.250000 0.875000 0.000000
0.312500 0.875000 0.000000
0.375000 0.875000 0.000000
0.437500 0.875000 0.000000
0.500000 0.875000 0.000000
0.562500 0.875000 0.000000
0.625000 0.875000 0.000000
0.687500 0.875000 0.000000
0.750000 0.875000 0.000000
0.812500 0.875000 0.000000
0.875000 0.875000 0.000000
0.937500 0.875000 0.000000
1.000000 0.875000 0.000000
0.000000 0.937500 0.000000
0.062500 0.937500 0.000000
0.125000 0.937500 0.000000
0.187500 0.937500 0.000000
0.250000 0.937500 0.000000
0.312531 0.937592 0.000092
0.375275 0.938049 0.000427
0.439026 0.938263 0.000458
0.500244 0.937592 0.000061
0.562500 0.937500 0.000000
0.625000 0.937500 0.000000
0.687500 0.937500 0.000000
0.750000 0.937500 0.000000
0.812500 0.937500 0.000000
0.875000 0.937500 0.000000
0.937500 0.937500 0.000000
1.000000 0.937500 0.000000
0.000000 1.000000 0.000000
0.062500 1.000000 0.000000
0.125000 1.000000 0.000000
0.187500 1.000000 0.000000
0.250000 1.000000 0.000000
0.312531 1.000000 0.000061
0.375305 1.000000 0.000458
0.439087 1.000000 0.000488
0.500366 1.000000 0.000061
0.562500 1.000000 0.000000
0.625000 1.000000 0.000000
0.687500 1.000000 0.000000
0.750000 1.000000 0.000000
0.812500 1.000000 0.000000
0.875000 1.000000 0.000000
0.937500 1.000000 0.000000
1.000000 1.000000 0.000000
0.000000 0.000000 0.062500
0.062500 0.000000 0.062500
0.125000 0.000000 0.062500
0.187500 0.000000 0.062500
0.250000 0.000000 0.062500
0.312500 0.000000 0.062500
0.374878 0.000000 0.062439
0.438690 0.000000 0.061829
0.500885 0.000000 0.062042
0.562561 0.000000 0.062439
0.625000 0.000000 0.062500
0.687500 0.000000 0.062500
0.750000 0.000000 0.062500
0.812500 0.000000 0.062500
0.875000 0.000000 0.062500
0.937500 0.000000 0.062500
1.000000 0.000000 0.062500
0.000000 0.062500 0.062500
0.062500 0.062500 0.062500
0.125000 0.062500 0.062500
0.187500 0.062500 0.062500
0.250000 0.062500 0.062500
0.312500 0.062500 0.062500
0.375000 0.062500 0.062500
0.437714 0.062347 0.062347
0.501404 0.061737 0.061737
0.562683 0.062378 0.062378
0.625000 0.062500 0.062500
0.687500 0.062500 0.062500
0.750000 0.062500 0.062500
0.812500 0.062500 0.062500
0.875000 0.062500 0.062500
0.937500 0.062500 0.062500
1.000000 0.062500 0.062500
0.000000 0.125000 0.062500
0.062500 0.125000 0.062500
0.125000 0.125000 0.062500
0.187500 0.125000 0.062500
0.250000 0.125000 0.062500
0.312347 0.124939 0.062469
0.374329 0.124481 0.062195
0.442505 0.121246 0.059418
0.511322 0.117981 0.056488
0.564667 0.123566 0.061279
0.625061 0.124939 0.062439
0.687500 0.125000 0.062500
0.750000 0.125000 0.062500
0.812500 0.125000 0.062500
0.875000 0.125000 0.062500
0.937500 0.125000 0.062500
1.000000 0.125000 0.062500
0.000000 0.187500 0.062500
0.062500 0.187500 0.062500
0.125000 0.187500 0.062500
0.187500 0.187500 0.062500
0.250000 0.187500 0.062500
0.312500 0.187500 0.062500
0.375000 0.187500 0.062500
0.437927 0.187134 0.062225
0.503601 0.185059 0.060699
0.563995 0.186432 0.061707
0.625092 0.187408 0.062439
0.687500 0.187500 0.062500
0.750000 0.187500 0.062500
0.812500 0.187500 0.062500
0.875000 0.187500 0.062500
0.937500 0.187500 0.062500
1.000000 0.187500 0.062500
0.000000 0.250000 0.062500
0.062500 0.250000 0.062500
0.125000 0.250000 0.062500
0.187500 0.250000 0.062500
0.250000 0.250000 0.062500
0.312500 0.250000 0.062500
0.375000 0.250000 0.062500
0.437500 0.250000 0.062500
0.500183 0.249847 0.062408
0.563141 0.249542 0.062195
0.625122 0.249908 0.062439
0.687500 0.250000 0.062500
0.750000 0.250000 0.062500
0.812500 0.250000 0.062500
0.875000 0.250000 0.062500
0.937500 0.250000 0.062500
1.000000 0.250000 0.062500
0.000000 0.312500 0.062500
0.062500 0.312500 0.062500
0.125000 0.312500 0.062500
0.187500 0.312500 0.062500
0.250000 0.312500 0.062500
0.312500 0.312500 0.062500
0.374939 0.312408 0.062469
0.438507 0.311615 0.061981
0.504395 0.309662 0.060699
0.568329 0.308746 0.060181
0.626312 0.311646 0.062012
0.687531 0.312469 0.062469
0.750000 0.312500 0.062500
0.812500 0.312500 0.062500
0.875000 0.312500 0.062500
0.937500 0.312500 0.062500
1.000000 0.312500 0.062500
0.000000 0.375000 0.062500
0.062500 0.375000 0.062500
0.125000 0.375000 0.062500
0.187500 0.375000 0.062500
0.250000 0.375000 0.062500
0.312500 0.375000 0.062500
0.375000 0.375000 0.062500
0.437500 0.375000 0.062500
0.500366 0.374786 0.062347
0.564362 0.374329 0.062073
0.626068 0.374908 0.062531
0.687592 0.375000 0.062531
0.750000 0.375000 0.062500
0.812500 0.375000 0.062500
0.875000 0.375000 0.062500
0.937500 0.375000 0.062500
1.000000 0.375000 0.062500
0.000000 0.437500 0.062500
0.062500 0.437500 0.062500
0.125000 0.437500 0.062500
0.187469 0.437500 0.062469
0.249969 0.437500 0.062469
0.312500 0.437500 0.062500
0.375000 0.437500 0.062500
0.437500 0.437500 0.062500
0.500000 0.437500 0.062500
0.562531 0.437531 0.062500
0.625122 0.437592 0.062500
0.687531 0.437531 0.062500
0.750000 0.437500 0.062500
0.812500 0.437500 0.062500
0.875000 0.437500 0.062500
0.937500 0.437500 0.062500
1.000000 0.437500 0.062500
0.000000 0.500000 0.062500
0.062500 0.500000 0.062500
0.125000 0.500000 0.062500
0.187500 0.500000 0.062500
0.250000 0.500000 0.062500
0.312500 0.500000 0.062500
0.375000 0.500000 0.062500
0.437531 0.500061 0.062500
0.500397 0.500397 0.062500
0.563538 0.501099 0.062531
0.626129 0.501282 0.062561
0.687805 0.500397 0.062531
0.750000 0.500000 0.062500
0.812500 0.500000 0.062500
0.875000 0.500000 0.062500
0.937500 0.500000 0.062500
1.000000 0.500000 0.062500
0.000000 0.562500 0.062500
0.062500 0.562500 0.062500
0.125000 0.562500 0.062500
0.187500 0.562500 0.062500
0.250000 0.562592 0.062531
0.312500 0.562653 0.062531
0.375000 0.562561 0.062500
0.437500 0.562500 0.062500
0.500000 0.562500 0.062500
0.562592 0.562592 0.062500
0.625305 0.562805 0.062500
0.687653 0.562683 0.062500
0.750000 0.562531 0.062500
0.812500 0.562500 0.062500
0.875000 0.562500 0.062500
0.937500 0.562500 0.062500
1.000000 0.562500 0.062500
0.000000 0.625000 0.062500
0.062500 0.625000 0.062500
0.125031 0.625092 0.062531
0.187531 0.625275 0.062561
0.250061 0.625488 0.062622
0.312561 0.625519 0.062653
0.375031 0.625214 0.062561
0.437500 0.625000 0.062500
0.500000 0.625000 0.062500
0.562500 0.625000 0.062500
0.625000 0.625000 0.062500
0.687500 0.625000 0.062500
0.750000 0.625000 0.062500
0.812500 0.625000 0.062500
0.875000 0.625000 0.062500
0.937500 0.625000 0.062500
1.000000 0.625000 0.062500
0.000000 0.687500 0.062500
0.062500 0.687500 0.062500
0.125000 0.687500 0.062500
0.187500 0.687500 0.062500
0.250000 0.687500 0.062500
0.312500 0.687561 0.062500
0.375000 0.687561 0.062531
0.437500 0.687500 0.062500
0.500000 0.687500 0.062500
0.562500 0.687500 0.062500
0.625031 0.687531 0.062500
0.687531 0.687531 0.062500
0.750000 0.687500 0.062500
0.812500 0.687500 0.062500
0.875000 0.687500 0.062500
0.937500 0.687500 0.062500
1.000000 0.687500 0.062500
0.000000 0.750000 0.062500
0.062500 0.750000 0.062500
0.125000 0.750000 0.062500
0.187500 0.750000 0.062500
0.250000 0.750061 0.062531
0.312561 0.750336 0.062622
0.375122 0.750488 0.062683
0.437653 0.750122 0.062531
0.500000 0.750000 0.062500
0.562500 0.750000 0.062500
0.625000 0.750000 0.062500
0.687500 0.750000 0.062500
0.750000 0.750000 0.062500
0.812500 0.750000 0.062500
0.875000 0.750000 0.062500
0.937500 0.750000 0.062500
1.000000 0.750000 0.062500
0.000000 0.812500 0.062500
0.062500 0.812500 0.062500
0.125000 0.812531 0.062500
0.187592 0.812775 0.062622
0.250244 0.813293 0.062866
0.312927 0.813873 0.063141
0.375519 0.813995 0.063171
0.438141 0.812988 0.062653
0.500061 0.812531 0.062500
0.562500 0.812500 0.062500
0.625000 0.812500 0.062500
0.687500 0.812500 0.062500
0.750000 0.812500 0.062500
0.812500 0.812500 0.062500
0.875000 0.812500 0.062500
0.937500 0.812500 0.062500
1.000000 0.812500 0.062500
0.000000 0.875000 0.062500
0.062500 0.875000 0.062500
0.125000 0.875000 0.062500
0.187500 0.875000 0.062500
0.250000 0.875000 0.062500
0.312500 0.875031 0.062531
0.375122 0.875305 0.062653
0.438019 0.875305 0.062622
0.500183 0.875061 0.062531
0.562500 0.875000 0.062500
0.625000 0.875000 0.062500
0.687500 0.875000 0.062500
0.750000 0.875000 0.062500
0.812500 0.875000 0.062500
0.875000 0.875000 0.062500
0.937500 0.875000 0.062500
1.000000 0.875000 0.062500
0.000000 0.937500 0.062500
0.062500 0.937500 0.062500
0.125000 0.937500 0.062500
0.187500 0.937500 0.062500
0.250000 0.937500 0.062500
0.312592 0.937714 0.062622
0.375519 0.938538 0.063171
0.440796 0.939117 0.063324
0.501038 0.937836 0.062622
0.562531 0.937500 0.062500
0.625000 0.937500 0.062500
0.687500 0.937500 0.062500
0.750000 0.937500 0.062500
0.812500 0.937500 0.062500
0.875000 0.937500 0.062500
0.937500 0.937500 0.062500
1.000000 0.937500 0.062500
0.000000 1.000000 0.062500
0.062500 1.000000 0.062500
0.125000 1.000000 0.062500
0.187561 1.000000 0.062592
0.250488 1.000000 0.063232
0.313812 1.000000 0.064545
0.377655 1.000000 0.065979
0.447601 1.000000 0.064972
0.504303 1.000000 0.063049
0.562866 1.000000 0.062531
0.625000 1.000000 0.062500
0.687500 1.000000 0.062500
0.750000 1.000000 0.062500
0.812500 1.000000 0.062500
0.875000 1.000000 0.062500
0.937500 1.000000 0.062500
1.000000 1.000000 0.062500
0.000000 0.000000 0.125000
0.062500 0.000000 0.125000
0.125000 0.000000 0.125000
0.187469 0.000000 0.124969
0.249481 0.000031 0.124756
0.309692 0.000000 0.123627
0.371185 0.000000 0.122162
0.449310 0.000000 0.116760
0.509766 0.000000 0.119293
0.563904 0.000000 0.124084
0.625031 0.000000 0.124969
0.687500 0.000000 0.125000
0.750000 0.000000 0.125000
0.812500 0.000000 0.125000
0.875000 0.000000 0.125000
0.937500 0.000000 0.125000
1.000000 0.000000 0.125000
0.000000 0.062500 0.125000
0.062500 0.062500 0.125000
0.125000 0.062500 0.125000
0.187500 0.062500 0.125000
0.250000 0.062500 0.125000
0.312500 0.062500 0.125000
0.374969 0.062469 0.124969
0.438263 0.062012 0.124420
0.503815 0.060455 0.122620
0.563782 0.061768 0.124146
0.625092 0.062439 0.124939
0.687500 0.062500 0.125000
0.750000 0.062500 0.125000
0.812500 0.062500 0.125000
0.875000 0.062500 0.125000
0.937500 0.062500 0.125000
1.000000 0.062500 0.125000
0.000000 0.125000 0.125000
0.062500 0.125000 0.125000
0.125000 0.125000 0.125000
0.187500 0.125000 0.125000
0.249969 0.124969 0.124969
0.312195 0.124847 0.124847
0.373840 0.124115 0.124115
0.444244 0.119934 0.119934
0.516144 0.115082 0.115082
0.569153 0.120575 0.120575
0.625580 0.124573 0.124573
0.687500 0.125000 0.125000
0.750000 0.125000 0.125000
0.812500 0.125000 0.125000
0.875000 0.125000 0.125000
0.937500 0.125000 0.125000
1.000000 0.125000 0.125000
0.000000 0.187500 0.125000
0.062500 0.187500 0.125000
0.125000 0.187500 0.125000
0.187500 0.187500 0.125000
0.249969 0.187469 0.124969
0.311554 0.186768 0.124512
0.370300 0.182434 0.121460
0.456238 0.171844 0.111816
0.533386 0.165039 0.105560
0.579742 0.175293 0.114441
0.626892 0.186035 0.123749
0.687531 0.187439 0.124969
0.750000 0.187500 0.125000
0.812500 0.187500 0.125000
0.875000 0.187500 0.125000
0.937500 0.187500 0.125000
1.000000 0.187500 0.125000
0.000000 0.250000 0.125000
0.062500 0.250000 0.125000
0.125000 0.250000 0.125000
0.187500 0.250000 0.125000
0.250000 0.250000 0.125000
0.312500 0.250000 0.125000
0.375000 0.250000 0.125000
0.437531 0.249939 0.124969
0.501038 0.249268 0.124451
0.566772 0.247009 0.122711
0.626587 0.248810 0.124115
0.687592 0.249908 0.124939
0.750000 0.250000 0.125000
0.812500 0.250000 0.125000
0.875000 0.250000 0.125000
0.937500 0.250000 0.125000
1.000000 0.250000 0.125000
0.000000 0.312500 0.125000
0.062500 0.312500 0.125000
0.125000 0.312500 0.125000
0.187500 0.312500 0.125000
0.250000 0.312500 0.125000
0.312469 0.312469 0.125000
0.374847 0.312317 0.124908
0.439178 0.311096 0.123993
0.506012 0.308685 0.122131
0.571259 0.307037 0.120941
0.628876 0.310150 0.123291
0.687866 0.312286 0.124847
0.750000 0.312500 0.125000
0.812500 0.312500 0.125000
0.875000 0.312500 0.125000
0.937500 0.312500 0.125000
1.000000 0.312500 0.125000
0.000000 0.375000 0.125000
0.062500 0.375000 0.125000
0.125000 0.375000 0.125000
0.187500 0.375000 0.125000
0.250000 0.375000 0.125000
0.312469 0.374969 0.124969
0.374573 0.374573 0.124695
0.443390 0.370972 0.121521
0.514648 0.367950 0.118835
0.582184 0.369965 0.121002
0.637634 0.374817 0.125427
0.689606 0.375427 0.125519
0.750061 0.375031 0.125031
0.812500 0.375000 0.125000
0.875000 0.375000 0.125000
0.937500 0.375000 0.125000
1.000000 0.375000 0.125000
0.000000 0.437500 0.125000
0.062500 0.437500 0.125000
0.124969 0.437500 0.124969
0.187469 0.437500 0.124969
0.249969 0.437500 0.124969
0.312469 0.437500 0.124969
0.375000 0.437500 0.125000
0.437500 0.437500 0.125000
0.500000 0.437500 0.124969
0.563049 0.437927 0.124969
0.627533 0.439697 0.125366
0.688690 0.438629 0.125244
0.750092 0.437622 0.125031
0.812500 0.437500 0.125000
0.875000 0.437500 0.125000
0.937500 0.437500 0.125000
1.000000 0.437500 0.125000
0.000000 0.500000 0.125000
0.062500 0.500000 0.125000
0.125000 0.500000 0.125000
0.187469 0.500000 0.124969
0.249969 0.500000 0.124969
0.312500 0.500000 0.125000
0.375000 0.500000 0.125000
0.437622 0.500153 0.125000
0.500610 0.500610 0.124969
0.563934 0.501495 0.124969
0.626831 0.502075 0.125000
0.688324 0.501068 0.125000
0.750092 0.500122 0.125000
0.812500 0.500000 0.125000
0.875000 0.500000 0.125000
0.937500 0.500000 0.125000
1.000000 0.500000 0.125000
0.000000 0.562500 0.125000
0.062500 0.562500 0.125000
0.125000 0.562500 0.125000
0.187500 0.562500 0.125000
0.250000 0.562592 0.125000
0.312500 0.562653 0.125031
0.375000 0.562592 0.125000
0.437866 0.562988 0.125031
0.501923 0.564331 0.125000
0.565582 0.565582 0.125000
0.628235 0.566010 0.125000
0.689178 0.564545 0.125031
0.750275 0.562897 0.125000
0.812500 0.562500 0.125000
0.875000 0.562500 0.125000
0.937500 0.562500 0.125000
1.000000 0.562500 0.125000
0.000000 0.625000 0.125000
0.062500 0.625031 0.125000
0.125031 0.625153 0.125031
0.187561 0.625336 0.125092
0.250092 0.625580 0.125122
0.312592 0.625702 0.125153
0.375092 0.625458 0.125092
0.437561 0.625061 0.125000
0.500000 0.625000 0.125000
0.562500 0.625000 0.125000
0.625061 0.625061 0.125000
0.687714 0.625244 0.125000
0.750122 0.625153 0.125000
0.812500 0.625000 0.125000
0.875000 0.625000 0.125000
0.937500 0.625000 0.125000
1.000000 0.625000 0.125000
0.000000 0.687500 0.125000
0.062500 0.687500 0.125000
0.125000 0.687531 0.125000
0.187561 0.687836 0.125092
0.250183 0.688354 0.125244
0.312714 0.688629 0.125336
0.375183 0.688354 0.125214
0.437714 0.687744 0.125031
0.500031 0.687531 0.125000
0.562500 0.687500 0.125000
0.625031 0.687531 0.125000
0.687561 0.687561 0.125000
0.750031 0.687531 0.125000
0.812500 0.687500 0.125000
0.875000 0.687500 0.125000
0.937500 0.687500 0.125000
1.000000 0.687500 0.125000
0.000000 0.750000 0.125000
0.062500 0.750000 0.125000
0.125000 0.750000 0.125000
0.187500 0.750000 0.125000
0.250000 0.750061 0.125031
0.312592 0.750336 0.125122
0.375122 0.750488 0.125153
0.437683 0.750153 0.125031
0.500031 0.750031 0.125000
0.562561 0.750031 0.125000
0.625092 0.750061 0.125000
0.687592 0.750061 0.125000
0.750031 0.750031 0.125000
0.812500 0.750000 0.125000
0.875000 0.750000 0.125000
0.937500 0.750000 0.125000
1.000000 0.750000 0.125000
0.000000 0.812500 0.125000
0.062500 0.812500 0.125000
0.125061 0.812622 0.125061
0.187683 0.812958 0.125183
0.250336 0.813507 0.125427
0.312988 0.814148 0.125671
0.375702 0.814545 0.125793
0.438843 0.813538 0.125214
0.500305 0.812683 0.125000
0.562500 0.812500 0.125000
0.625000 0.812500 0.125000
0.687500 0.812500 0.125000
0.750000 0.812500 0.125000
0.812500 0.812500 0.125000
0.875000 0.812500 0.125000
0.937500 0.812500 0.125000
1.000000 0.812500 0.125000
0.000000 0.875000 0.125000
0.062500 0.875000 0.125000
0.125000 0.875000 0.125000
0.187592 0.875183 0.125092
0.250641 0.876709 0.125854
0.314117 0.879395 0.127167
0.377350 0.880707 0.127686
0.442871 0.878357 0.125977
0.502167 0.875977 0.125153
0.562683 0.875092 0.125000
0.625000 0.875000 0.125000
0.687500 0.875000 0.125000
0.750000 0.875000 0.125000
0.812500 0.875000 0.125000
0.875000 0.875000 0.125000
0.937500 0.875000 0.125000
1.000000 0.875000 0.125000
0.000000 0.937500 0.125000
0.062500 0.937500 0.125000
0.125000 0.937500 0.125000
0.187500 0.937500 0.125000
0.250000 0.937500 0.125000
0.312592 0.937714 0.125122
0.375610 0.938721 0.125702
0.440552 0.938965 0.125549
0.501495 0.937988 0.125122
0.562714 0.937561 0.125000
0.625000 0.937500 0.125000
0.687500 0.937500 0.125000
0.750000 0.937500 0.125000
0.812500 0.937500 0.125000
0.875000 0.937500 0.125000
0.937500 0.937500 0.125000
1.000000 0.937500 0.125000
0.000000 1.000000 0.125000
0.062500 1.000000 0.125000
0.125031 1.000000 0.125031
0.187714 1.000000 0.125244
0.250793 1.000000 0.126068
0.314209 1.000000 0.127319
0.378113 1.000000 0.128540
0.450073 1.000000 0.127258
0.509827 1.000000 0.125702
0.564026 1.000000 0.125092
0.625031 1.000000 0.125000
0.687500 1.000000 0.125000
0.750000 1.000000 0.125000
0.812500 1.000000 0.125000
0.875000 1.000000 0.125000
0.937500 1.000000 0.125000
1.000000 1.000000 0.125000
0.000000 0.000000 0.187500
0.062500 0.000000 0.187500
0.124878 0.000000 0.187317
0.186707 0.000061 0.186707
0.247833 0.000122 0.185822
0.308716 0.000000 0.184570
0.370697 0.000000 0.182831
0.450562 0.000000 0.176758
0.515686 0.000000 0.176849
0.566650 0.000000 0.184448
0.625305 0.000000 0.187225
0.687500 0.000000 0.187500
0.750000 0.000000 0.187500
0.812500 0.000000 0.187500
0.875000 0.000000 0.187500
